src/assets/advantages/time-wallet-icon.svg

<svg width="52" height="52" viewBox="0 0 52 52" fill="none" xmlns="http://www.w3.org/2000/svg">
<path d="M41.151 41.5563V46.0502C41.151 47.8783 39.6723 49.3595 37.8472 49.3595H11.4093C9.58424 49.3595 8.10547 47.8783 8.10547 46.0479L8.1123 20.9902" stroke="#F2C247" stroke-linecap="round" stroke-linejoin="round"/>
<path d="M16.5227 18.8081H10.1698C9.02827 18.8081 8.10547 19.7407 8.10547 20.8891C8.10547 22.0399 9.03055 22.9702 10.1698 22.9702H37.7287C39.6199 22.9702 41.151 24.516 41.151 26.4202L41.151 27.0695" stroke="#F2C247" stroke-linecap="round" stroke-linejoin="round"/>
<path d="M29.5392 30.9663H43.9573V41.5658H29.5392C27.6884 41.5658 26.1875 40.0813 26.1875 38.2507V34.2814C26.1875 32.4509 27.6884 30.9663 29.5392 30.9663Z" stroke="#F2C247" stroke-linecap="round" stroke-linejoin="round"/>
<path d="M30.8642 37.513C31.5529 37.513 32.1112 36.9547 32.1112 36.266C32.1112 35.5773 31.5529 35.019 30.8642 35.019C30.1755 35.019 29.6172 35.5773 29.6172 36.266C29.6172 36.9547 30.1755 37.513 30.8642 37.513Z" fill="#F2C247"/>
<path d="M21.8387 19.7434C20.4092 17.8495 19.6406 15.5838 19.6406 13.2629C19.6406 10.3246 20.8718 7.4987 23.0699 5.40283" stroke="#F2C247" stroke-linecap="round" stroke-linejoin="round"/>
<path d="M26.1875 3.24756C27.6396 2.61269 29.2164 2.28516 30.8093 2.28516C36.9963 2.28516 42.0868 7.2318 42.0868 13.2441C42.0868 15.7163 41.2257 18.1167 39.6443 20.0549" stroke="#F2C247" stroke-linecap="round" stroke-linejoin="round"/>
<path d="M30.5508 5.40283V14.3134L34.2918 17.5611" stroke="#F2C247" stroke-linecap="round" stroke-linejoin="round"/>
</svg>

<svg xmlns="http://www.w3.org/2000/svg" width="52" height="52" fill="none" viewBox="0 0 52 52">
    <path stroke="#F2C247" stroke-linecap="round" stroke-linejoin="round" d="M41.151 41.556v4.494a3.306 3.306 0 0 1-3.304 3.31H11.41a3.307 3.307 0 0 1-3.304-3.312l.007-25.058"/>
    <path stroke="#F2C247" stroke-linecap="round" stroke-linejoin="round" d="M16.523 18.808H10.17a2.072 2.072 0 0 0-2.065 2.081c0 1.15.926 2.081 2.065 2.081h27.559c1.89 0 3.422 1.546 3.422 3.45v.65M29.54 30.966h14.417v10.6H29.54c-1.85 0-3.352-1.485-3.352-3.315v-3.97c0-1.83 1.501-3.315 3.352-3.315Z"/>
    <path fill="#F2C247" d="M30.864 37.513a1.247 1.247 0 1 0 0-2.494 1.247 1.247 0 0 0 0 2.494Z"/>
    <path stroke="#F2C247" stroke-linecap="round" stroke-linejoin="round" d="M21.839 19.743c-1.43-1.893-2.198-4.16-2.198-6.48 0-2.938 1.23-5.764 3.429-7.86M26.188 3.248a11.547 11.547 0 0 1 4.621-.963c6.187 0 11.278 4.947 11.278 10.96a10.77 10.77 0 0 1-2.443 6.81"/>
    <path stroke="#F2C247" stroke-linecap="round" stroke-linejoin="round" d="M30.55 5.403v8.91l3.742 3.248"/>
</svg>
